Newaita-dark/apps/16/atomix.svg

<?xml version="1.0" encoding="UTF-8"?>
<svg xmlns="http://www.w3.org/2000/svg" xmlns:xlink="http://www.w3.org/1999/xlink" width="16pt" height="16pt" viewBox="0 0 16 16" version="1.1">
<defs>
<radialGradient id="radial0" gradientUnits="userSpaceOnUse" cx="450.908936" cy="189.579361" fx="450.908936" fy="189.579361" r="21.166656" gradientTransform="matrix(0.0000000870852,-0.0390662,-0.0703192,-0.0000000507693,23.749999,31.797665)">
<stop offset="0" style="stop-color:rgb(0%,0%,0%);stop-opacity:0.313725;"/>
<stop offset="0.222222" style="stop-color:rgb(0%,0%,0%);stop-opacity:0.27451;"/>
<stop offset="1" style="stop-color:rgb(0%,0%,0%);stop-opacity:0;"/>
</radialGradient>
<radialGradient id="radial1" gradientUnits="userSpaceOnUse" cx="450.908936" cy="189.579361" fx="450.908936" fy="189.579361" r="21.166656" gradientTransform="matrix(-0.0000000870852,0.0390662,0.0703192,0.0000000507693,-4.565878,-3.763741)">
<stop offset="0" style="stop-color:rgb(0%,0%,0%);stop-opacity:0.313725;"/>
<stop offset="0.222222" style="stop-color:rgb(0%,0%,0%);stop-opacity:0.27451;"/>
<stop offset="1" style="stop-color:rgb(0%,0%,0%);stop-opacity:0;"/>
</radialGradient>
<radialGradient id="radial2" gradientUnits="userSpaceOnUse" cx="450.908936" cy="189.579361" fx="450.908936" fy="189.579361" r="21.166656" gradientTransform="matrix(-0.0000000870852,-0.0390662,0.0703192,-0.0000000507693,-4.565878,31.797665)">
<stop offset="0" style="stop-color:rgb(0%,0%,0%);stop-opacity:0.313725;"/>
<stop offset="0.222222" style="stop-color:rgb(0%,0%,0%);stop-opacity:0.27451;"/>
<stop offset="1" style="stop-color:rgb(0%,0%,0%);stop-opacity:0;"/>
</radialGradient>
<radialGradient id="radial3" gradientUnits="userSpaceOnUse" cx="450.908936" cy="189.579361" fx="450.908936" fy="189.579361" r="21.166656" gradientTransform="matrix(0.0000000870852,0.0390662,-0.0703192,0.0000000507693,23.749998,-3.763741)">
<stop offset="0" style="stop-color:rgb(0%,0%,0%);stop-opacity:0.313725;"/>
<stop offset="0.222222" style="stop-color:rgb(0%,0%,0%);stop-opacity:0.27451;"/>
<stop offset="1" style="stop-color:rgb(0%,0%,0%);stop-opacity:0;"/>
</radialGradient>
<linearGradient id="linear0" gradientUnits="userSpaceOnUse" x1="255.323059" y1="233.5" x2="255.323044" y2="254.666656" gradientTransform="matrix(0.00668003,0,0,0.031253,7.721116,6.719392)">
<stop offset="0" style="stop-color:rgb(0%,0%,0%);stop-opacity:0.27451;"/>
<stop offset="1" style="stop-color:rgb(0%,0%,0%);stop-opacity:0;"/>
</linearGradient>
<linearGradient id="linear1" gradientUnits="userSpaceOnUse" x1="254" y1="-62.833332" x2="254" y2="233.5" gradientTransform="matrix(0.031253,0,0,0.031253,0,6.719392)">
<stop offset="0" style="stop-color:rgb(47.058824%,56.470588%,61.176471%);stop-opacity:1;"/>
<stop offset="1" style="stop-color:rgb(37.647059%,49.019608%,54.509804%);stop-opacity:1;"/>
</linearGradient>
<linearGradient id="linear2" gradientUnits="userSpaceOnUse" x1="1160" y1="495.118103" x2="1160" y2="175.118118" >
<stop offset="0" style="stop-color:rgb(100%,79.215686%,15.686275%);stop-opacity:1;"/>
<stop offset="1" style="stop-color:rgb(100%,83.529412%,30.980392%);stop-opacity:1;"/>
</linearGradient>
<linearGradient id="linear3" gradientUnits="userSpaceOnUse" x1="84.666664" y1="127.666656" x2="84.666664" y2="43" >
<stop offset="0" style="stop-color:rgb(100%,79.215686%,15.686275%);stop-opacity:1;"/>
<stop offset="1" style="stop-color:rgb(100%,83.529412%,30.980392%);stop-opacity:1;"/>
</linearGradient>
<linearGradient id="linear4" gradientUnits="userSpaceOnUse" x1="1160" y1="975.118103" x2="1160" y2="1295.118164" >
<stop offset="0" style="stop-color:rgb(74.117647%,74.117647%,74.117647%);stop-opacity:1;"/>
<stop offset="1" style="stop-color:rgb(87.843137%,87.843137%,87.843137%);stop-opacity:1;"/>
</linearGradient>
</defs>
<g id="surface1">
<path style=" stroke:none;fill-rule:nonzero;fill:url(#radial0);" d="M 10.585938 14.015625 L 11.90625 14.015625 L 11.90625 13.355469 L 10.585938 13.355469 Z M 10.585938 14.015625 "/>
<path style=" stroke:none;fill-rule:nonzero;fill:url(#radial1);" d="M 8.601562 14.015625 L 7.277344 14.015625 L 7.277344 14.679688 L 8.601562 14.679688 Z M 8.601562 14.015625 "/>
<path style=" stroke:none;fill-rule:nonzero;fill:url(#radial2);" d="M 8.601562 14.015625 L 7.277344 14.015625 L 7.277344 13.355469 L 8.601562 13.355469 Z M 8.601562 14.015625 "/>
<path style=" stroke:none;fill-rule:nonzero;fill:url(#radial3);" d="M 10.585938 14.015625 L 11.90625 14.015625 L 11.90625 14.679688 L 10.585938 14.679688 Z M 10.585938 14.015625 "/>
<path style=" stroke:none;fill-rule:nonzero;fill:url(#linear0);" d="M 8.601562 13.851562 L 10.585938 13.851562 L 10.585938 14.679688 L 8.601562 14.679688 Z M 8.601562 13.851562 "/>
<path style=" stroke:none;fill-rule:nonzero;fill:url(#linear1);" d="M 9.59375 4.753906 C 12.148438 4.753906 14.222656 6.828125 14.222656 9.386719 C 14.222656 11.945312 12.148438 14.015625 9.59375 14.015625 C 7.035156 14.015625 4.960938 11.945312 4.960938 9.386719 C 4.960938 6.828125 7.035156 4.753906 9.59375 4.753906 Z M 9.59375 4.753906 "/>
<path style=" stroke:none;fill-rule:nonzero;fill:rgb(100%,100%,100%);fill-opacity:0.392157;" d="M 9.59375 4.753906 C 7.027344 4.753906 4.960938 6.820312 4.960938 9.386719 C 4.960938 9.398438 4.960938 9.414062 4.960938 9.425781 C 4.984375 6.882812 7.039062 4.839844 9.59375 4.839844 C 12.144531 4.839844 14.199219 6.882812 14.222656 9.425781 C 14.222656 9.414062 14.222656 9.398438 14.222656 9.386719 C 14.222656 6.820312 12.15625 4.753906 9.59375 4.753906 Z M 9.59375 4.753906 "/>
<path style="fill-rule:nonzero;fill:url(#linear2);stroke-width:11.338583;stroke-linecap:square;stroke-linejoin:bevel;stroke:rgb(12.941177%,12.941177%,12.941177%);stroke-opacity:1;stroke-miterlimit:4;" d="M 1160.204228 175.258863 L 1000.062032 334.928663 L 1079.896932 334.928663 L 1079.896932 454.917211 C 1079.896932 477.119817 1097.847974 495.070859 1120.05058 495.070859 L 1199.88548 495.070859 C 1222.088085 495.070859 1240.039128 477.119817 1240.039128 454.917211 L 1240.039128 334.928663 L 1319.874028 334.928663 Z M 1160.204228 175.258863 " transform="matrix(0.00826902,0,0,0.00826902,0,0)"/>
<path style="fill-rule:nonzero;fill:url(#linear3);stroke-width:3;stroke-linecap:square;stroke-linejoin:bevel;stroke:rgb(12.941177%,12.941177%,12.941177%);stroke-opacity:1;stroke-miterlimit:4;" d="M 42.370954 85.346318 L 84.616919 127.717272 L 84.616919 106.469301 L 116.363888 106.469301 C 122.238327 106.469301 126.987873 101.719755 126.987873 95.970304 L 126.987873 74.722333 C 126.987873 68.847894 122.238327 64.223336 116.363888 64.223336 L 84.616919 64.223336 L 84.616919 42.975365 Z M 42.370954 85.346318 " transform="matrix(0.031253,0,0,0.031253,0,6.719392)"/>
<path style=" stroke:none;fill-rule:nonzero;fill:rgb(0%,0%,0%);fill-opacity:0.235294;" d="M 9.59375 14.015625 C 7.027344 14.015625 4.960938 11.953125 4.960938 9.386719 C 4.960938 9.371094 4.960938 9.359375 4.960938 9.34375 C 4.984375 11.890625 7.039062 13.933594 9.59375 13.933594 C 12.144531 13.933594 14.199219 11.890625 14.222656 9.34375 C 14.222656 9.359375 14.222656 9.371094 14.222656 9.386719 C 14.222656 11.953125 12.15625 14.015625 9.59375 14.015625 Z M 9.59375 14.015625 "/>
<path style=" stroke:none;fill-rule:nonzero;fill:rgb(12.941177%,12.941177%,12.941177%);fill-opacity:1;" d="M 9.59375 4.707031 C 7 4.707031 4.914062 6.796875 4.914062 9.386719 C 4.914062 11.976562 7 14.0625 9.59375 14.0625 C 12.183594 14.0625 14.269531 11.976562 14.269531 9.386719 C 14.269531 6.796875 12.183594 4.707031 9.59375 4.707031 Z M 9.59375 4.800781 C 12.132812 4.800781 14.175781 6.847656 14.175781 9.386719 C 14.175781 11.925781 12.132812 13.96875 9.59375 13.96875 C 7.050781 13.96875 5.007812 11.925781 5.007812 9.386719 C 5.007812 6.847656 7.050781 4.800781 9.59375 4.800781 Z M 9.59375 4.800781 "/>
<path style="fill-rule:nonzero;fill:url(#linear4);stroke-width:11.338583;stroke-linecap:square;stroke-linejoin:bevel;stroke:rgb(12.941177%,12.941177%,12.941177%);stroke-opacity:1;stroke-miterlimit:4;" d="M 1000.062032 975.025051 C 977.859426 975.025051 959.908384 992.976094 959.908384 1015.178699 L 959.908384 1255.155795 C 959.908384 1277.3584 977.859426 1295.309443 1000.062032 1295.309443 L 1040.21568 1295.309443 C 1061.945889 1295.309443 1079.896932 1277.3584 1079.896932 1255.155795 L 1079.896932 1175.320895 L 1240.039128 1175.320895 L 1240.039128 1255.155795 C 1240.039128 1277.3584 1257.99017 1295.309443 1280.192776 1295.309443 L 1319.874028 1295.309443 C 1342.076633 1295.309443 1360.027676 1277.3584 1360.027676 1255.155795 L 1360.027676 1015.178699 C 1360.027676 992.976094 1342.076633 975.025051 1319.874028 975.025051 L 1280.192776 975.025051 C 1257.99017 975.025051 1240.039128 992.976094 1240.039128 1015.178699 L 1240.039128 1095.013599 L 1079.896932 1095.013599 L 1079.896932 1015.178699 C 1079.896932 992.976094 1061.945889 975.025051 1040.21568 975.025051 Z M 1000.062032 975.025051 " transform="matrix(0.00826902,0,0,0.00826902,0,0)"/>
</g>
</svg>

<svg xmlns="http://www.w3.org/2000/svg" width="16pt" height="16pt" viewBox="0 0 16 16"><defs><radialGradient id="a" gradientUnits="userSpaceOnUse" cx="450.909" cy="189.579" fx="450.909" fy="189.579" r="21.167" gradientTransform="matrix(0 -.03907 -.07032 0 23.75 31.798)"><stop offset="0" stop-opacity=".314"/><stop offset=".222" stop-opacity=".275"/><stop offset="1" stop-opacity="0"/></radialGradient><radialGradient id="b" gradientUnits="userSpaceOnUse" cx="450.909" cy="189.579" fx="450.909" fy="189.579" r="21.167" gradientTransform="matrix(0 .03907 .07032 0 -4.566 -3.764)"><stop offset="0" stop-opacity=".314"/><stop offset=".222" stop-opacity=".275"/><stop offset="1" stop-opacity="0"/></radialGradient><radialGradient id="c" gradientUnits="userSpaceOnUse" cx="450.909" cy="189.579" fx="450.909" fy="189.579" r="21.167" gradientTransform="matrix(0 -.03907 .07032 0 -4.566 31.798)"><stop offset="0" stop-opacity=".314"/><stop offset=".222" stop-opacity=".275"/><stop offset="1" stop-opacity="0"/></radialGradient><radialGradient id="d" gradientUnits="userSpaceOnUse" cx="450.909" cy="189.579" fx="450.909" fy="189.579" r="21.167" gradientTransform="matrix(0 .03907 -.07032 0 23.75 -3.764)"><stop offset="0" stop-opacity=".314"/><stop offset=".222" stop-opacity=".275"/><stop offset="1" stop-opacity="0"/></radialGradient><linearGradient id="e" gradientUnits="userSpaceOnUse" x1="255.323" y1="233.5" x2="255.323" y2="254.667" gradientTransform="matrix(.00668 0 0 .03125 7.721 6.72)"><stop offset="0" stop-opacity=".275"/><stop offset="1" stop-opacity="0"/></linearGradient><linearGradient id="f" gradientUnits="userSpaceOnUse" x1="254" y1="-62.833" x2="254" y2="233.5" gradientTransform="matrix(.03125 0 0 .03125 0 6.72)"><stop offset="0" stop-color="#78909c"/><stop offset="1" stop-color="#607d8b"/></linearGradient><linearGradient id="g" gradientUnits="userSpaceOnUse" x1="1160" y1="495.118" x2="1160" y2="175.118"><stop offset="0" stop-color="#ffca28"/><stop offset="1" stop-color="#ffd54f"/></linearGradient><linearGradient id="h" gradientUnits="userSpaceOnUse" x1="84.667" y1="127.667" x2="84.667" y2="43"><stop offset="0" stop-color="#ffca28"/><stop offset="1" stop-color="#ffd54f"/></linearGradient><linearGradient id="i" gradientUnits="userSpaceOnUse" x1="1160" y1="975.118" x2="1160" y2="1295.118"><stop offset="0" stop-color="#bdbdbd"/><stop offset="1" stop-color="#e0e0e0"/></linearGradient></defs><path d="M10.586 14.016h1.32v-.66h-1.32zm0 0" fill="url(#a)"/><path d="M8.602 14.016H7.277v.664h1.325zm0 0" fill="url(#b)"/><path d="M8.602 14.016H7.277v-.66h1.325zm0 0" fill="url(#c)"/><path d="M10.586 14.016h1.32v.664h-1.32zm0 0" fill="url(#d)"/><path d="M8.602 13.852h1.984v.828H8.602zm0 0" fill="url(#e)"/><path d="M9.594 4.754a4.632 4.632 0 1 1-.006 9.264 4.632 4.632 0 0 1 .006-9.264zm0 0" fill="url(#f)"/><path d="M9.594 4.754A4.623 4.623 0 0 0 4.96 9.387v.039A4.62 4.62 0 0 1 9.594 4.84a4.62 4.62 0 0 1 4.629 4.586v-.04a4.622 4.622 0 0 0-4.63-4.632zm0 0" fill="#fff" fill-opacity=".392"/><path d="M1160.204 175.259l-160.142 159.67h79.835v119.988c0 22.203 17.951 40.154 40.154 40.154h79.834c22.203 0 40.154-17.951 40.154-40.154V334.93h79.835zm0 0" transform="rotate(.882) scale(.00827)" fill="url(#g)" stroke-width="11.339" stroke-linecap="square" stroke-linejoin="bevel" stroke="#212121"/><path d="M42.371 85.346l42.246 42.371V106.47h31.747c5.874 0 10.624-4.75 10.624-10.499V74.722c0-5.874-4.75-10.499-10.624-10.499H84.617V42.975zm0 0" transform="matrix(.03125 0 0 .03125 0 6.72)" fill="url(#h)" stroke-width="3" stroke-linecap="square" stroke-linejoin="bevel" stroke="#212121"/><path d="M9.594 14.016a4.62 4.62 0 0 1-4.633-4.63v-.042a4.621 4.621 0 0 0 4.633 4.59 4.62 4.62 0 0 0 4.629-4.59v.043a4.619 4.619 0 0 1-4.63 4.629zm0 0" fill-opacity=".235"/><path d="M9.594 4.707a4.67 4.67 0 0 0-4.68 4.68 4.667 4.667 0 0 0 4.68 4.675 4.666 4.666 0 0 0 4.676-4.675 4.67 4.67 0 0 0-4.676-4.68zm0 .094a4.575 4.575 0 0 1 4.582 4.586 4.571 4.571 0 0 1-4.582 4.582 4.572 4.572 0 0 1-4.586-4.582A4.575 4.575 0 0 1 9.594 4.8zm0 0" fill="#212121"/><path d="M1000.062 975.025c-22.203 0-40.154 17.951-40.154 40.154v239.977c0 22.202 17.951 40.153 40.154 40.153h40.154c21.73 0 39.68-17.95 39.68-40.153v-79.835h160.143v79.835c0 22.202 17.951 40.153 40.154 40.153h39.681c22.203 0 40.154-17.95 40.154-40.153v-239.977c0-22.203-17.951-40.154-40.154-40.154h-39.681c-22.203 0-40.154 17.951-40.154 40.154v79.835h-160.142v-79.835c0-22.203-17.951-40.154-39.681-40.154zm0 0" transform="rotate(.882) scale(.00827)" fill="url(#i)" stroke-width="11.339" stroke-linecap="square" stroke-linejoin="bevel" stroke="#212121"/></svg>
